symbols/web/pageview/materialsymbolssharp/pageview_wght500fill1_24px.svg

<svg xmlns="http://www.w3.org/2000/svg" height="24" width="24"><path d="m16.225 17.7 1.475-1.475-2.3-2.3q.35-.525.512-1.1.163-.575.163-1.25 0-1.875-1.313-3.188-1.312-1.312-3.187-1.312-1.875 0-3.187 1.312Q7.075 9.7 7.075 11.575q0 1.875 1.313 3.187 1.312 1.313 3.187 1.313.625 0 1.225-.175.6-.175 1.125-.5Zm-4.65-3.725q-1.025 0-1.725-.7-.7-.7-.7-1.7 0-1.025.7-1.725.7-.7 1.725-.7 1 0 1.7.7t.7 1.725q0 1-.7 1.7t-1.7.7ZM1.8 20.2V3.8h20.4v16.4Z"/></svg>

<svg xmlns="http://www.w3.org/2000/svg" height="24" width="24"><path d="M16.225 17.7 17.7 16.225 15.4 13.925Q15.75 13.4 15.912 12.825Q16.075 12.25 16.075 11.575Q16.075 9.7 14.762 8.387Q13.45 7.075 11.575 7.075Q9.7 7.075 8.388 8.387Q7.075 9.7 7.075 11.575Q7.075 13.45 8.388 14.762Q9.7 16.075 11.575 16.075Q12.2 16.075 12.8 15.9Q13.4 15.725 13.925 15.4ZM11.575 13.975Q10.55 13.975 9.85 13.275Q9.15 12.575 9.15 11.575Q9.15 10.55 9.85 9.85Q10.55 9.15 11.575 9.15Q12.575 9.15 13.275 9.85Q13.975 10.55 13.975 11.575Q13.975 12.575 13.275 13.275Q12.575 13.975 11.575 13.975ZM1.8 20.2V3.8H22.2V20.2Z"/></svg>
